X: 3
T: The Congress
R: reel
M: 4/4
L: 1/8
K: Dmaj
(3Bcd |: {g}eA{G}AG {e}A2 (3Bcd | {g}ea{g}af {a}gf{g}ed | {g}eA {gAGAG}A2 {g}fA {gAGAG}A2 | B{g}B{G}BA {g}GA{g}Bd || {g}eA{G}AG {e}A2 (3Bcd | {g}ea{g}af {a}gf{g}ed | {g}c{e}c{G}cd {g}eg{a}ed | {g}(3cBA {g}BG {e}A2 (3Bcd :||: {g}ea{g}ag a{g}a{g}ag | {a}ea{g}ag {a}eg{a}dg | {a}eg{a}dg {a}eg{a}dg | {a}ea{g}ag ag{a}ed || {g}ea{g}ag a{g}a{g}ag | {a}ea{g}ag {a}eg{a}ed | {g}c{e}c{G}cd {g}eg{a}ed | {g}(3cBA {g}BG [1 {e}A2 (3Bcd :| [2 {e}A4 |


Tune 208	Setting 29019

